X:1
T:The Plains of Illinois
M:6/8
L:1/8
K:Bb
 F| G2 FG-A B| c d2- d2 G| B d2 c2 A| G3- G2 F| G2 FG-A B| c d2- d2 G|\
 Bcd c2 A| G6| F2 D C2 D| C B,2- B,2 D| F2 D F2 D| F3- F2 G|G-c c c2 d|\
 B G2 F2 G|D-C C C2 C| C3- C2||
